X: 29574
T: Noon Lassies, The
R: reel
M: 4/4
K: Gmajor
G2BG AGBA|GBAG GEDE|~G3B AGAc|BAGE EDD2:|
|:~d3B ~A3B|dedB BAAB|dedB AGAc|BAGE EDD2:|
|:dgbg agbg|dgbg agef|~g3e dedB|BAGE EDD2:|
edBg edBg|edBA GEEg|edBg edBA|GAGE EDDg|
edBg edBg|edBA GEE2|ed (3Bcd efg2|ABGE EDDE||

